X:1
T:Étude Op. 10 No. 3 in E major
T:Étude Op. 10 No. 3 in E major
T:"Tristesse"
T:Frédéric Chopin
C:Frédéric Chopin
%%score { ( 1 3 5 ) | ( 2 4 ) }
L:1/8
Q:1/4=25
M:2/4
K:E
V:1 treble nm="鋼琴" snm="Pno."
V:3 treble 
V:5 treble 
V:2 bass 
V:4 bass 
V:1
!p!"^Lento, ma non troppo""^legato" (B, | ED/E/)!mp! ([DF]2- | %2
!<(! F/G/!<)!!mf!!>(! G/F/)!>)!!mp! (!>![EG-]2 |!<(! G/A/!<)!!mf!!>(! A/G/)!>)! (c>!mp!B | %4
 A/G/D/E/) (!>!F2- |!<(! F/G/!<)!!mf!!>(!G/F/!>)!!p! !>!E2) | %6
!<(! (G/A/F/G/!<)!!mp!"_cresc." A/B/G/A/ | c) (!>!F2[Q:1/4=25][Q:1/4=26]{/^A} (!>!G/F/-) | %8
[Q:1/4=27] F[Q:1/4=28]{/^A}G/F/"^ten.""_riten."[Q:1/4=27] !>![DB]2)[Q:1/4=26][Q:1/4=25] | %9
[Q:1/4=25]"^a tempo"!p! ([EG]D/E/)!mp! ([DF]2- |!<(! F/G/!<)!!mf!!>(! G/F/)!>)!!mp! (!>![EG-]2 | %11
!<(! G/A/!<)!!mf!!>(! A/G/)!>)! (c>!mp!B | A/G/D/E/) (!>!F2- | %13
!<(! F/G/!<)!!mf!!>(!G/F/!>)!!mp! !>!E2) |"_cresc." (B/c/) (c/B/) (A/B/G/A/) | %15
"_stretto"[Q:1/4=25]"^.5"!mf! (^d/e/)[Q:1/4=26] (e/d/)[Q:1/4=27] (c/"_cresc."d/[Q:1/4=28]^B/c/) | %16
 (.[E^Ae]/.[FAf]/"_ritenuto"[Q:1/4=27].[DAd]/.[EAe]/[Q:1/4=26] .[FAf]/.[GAg]/[Q:1/4=25]"^.5".[EAe]/.[FAf]/) | %17
"^ten."[Q:1/4=25]"^a tempo"!ff! ([eg-]2!>(! g/f/e/c/!>)! | %18
"^ten.""_sempre legato"!f! d2) (e/d/c/G/ |"^ten." B2) (c/"_dim.                  rall."B/A/E/ | %20
[Q:1/4=24] !>!G4-[Q:1/4=23][Q:1/4=22][Q:1/4=20]{GF} | %21
[Q:1/4=18] E2)[Q:1/4=68]"^poco più animato"!p! (!>![Ge]/[Fd]/[Ge]/[DB]/ | %22
 [Fd]/[Ec]/[Fd]/[DG]/ B/^A/c |{/^A} [EG]/[DF]/{/A}[EG]/[DF]/) ([Ge]/[Fd]/[Ge]/[DB]/ | %24
 [Fd]/[Ec]/[Fd]/[DG]/ B/^A/c |{/^A} [EG]/[DF]/{/A}[EG]/[DF]/)!>(! ([=Af]/[Ge]/[Af]/!>)!!pp![Ec]/ | %26
 [Ge]/[Fd]/[Ge]/[E^A]/ c/^B/d | %27
!<(!{/=B} [FA]/[EG]/{/B}[FA]/[EG]/)!<)!!mf!!>(! ([Af]/[Ge]/[Af]/[Ec]/!>)! | %28
!p! [Ge]/[Fd]/[Ge]/[E^A]/ c/^B/d | %29
!mf!!>(!{/=B} [FA]/[EG]/{/B}[FA]/!>)!!mp!!<(![EG]/{/B} [FA]/!<)!!mf!"_cresc."[EG]/[FA]/[GB]/) | %30
!f! ([Ac]>[Ac] [GB]>[GB]) |!p! ([A=c]>[Ac] [GB]>[GB]) | %32
!f![Q:1/4=58] !wedge![^CEB^c]/!p![Q:1/4=78]!<(! ([ce]/[=GB]/) ([Bc]/[e=g]/)"_cresc." ([gb]/[ce]/) ([eg]/ | %33
[bc']/) ([c'e']/[=gb]/) ([bc']/!<)![Q:1/4=58][e'=g']/)!f![Q:1/4=68]!>(! (.[^Ag]/.[Af]/.[Ae]/)!>)! | %34
!f! ([Ac]>[Ac] [GB]>[GB]) |!p! ([A=c]>[Ac] [GB]>[GB]) | %36
!f![Q:1/4=58] !wedge![^DFc^d]/!p![Q:1/4=78]!<(! ([df]/[=Ac]/) ([cd]/[fa]/)"_cresc." ([ac']/[df]/) ([fa]/ | %37
[c'd']/) ([d'f']/[ac']/) ([c'd']/!<)![Q:1/4=58][f'a']/)!f![Q:1/4=68]!>(! (.[^Ba]/.[Bg]/.[Bf]/)!>)! | %38
 .[=B^e]/[Q:1/4=78]!p!!<(! ([G=d]/[=Gc]/[=cf]/ [B^e]/[=e^a]/"_cresc."[^d=a]/[^g=d']/!<)! | %39
[Q:1/4=68] .[=g^c']/)!p![Q:1/4=78]!<(! ([=Gc]/[^F=c]/[B=f]/ [^Ae]/[^d=a]/"_cresc."[=d^g]/[=g^c']/!<)! | %40
[Q:1/4=68] .[^f=c']/)!p![Q:1/4=78]!<(! ([^F=c]/[=FB]/[^Ae]/ [=A^d]/[=d^g]/"_crescendo"[^c=g]/[fc']/ | %41
 [=fb]/[^ae']/[=a^d']/!8va(![=d'^g']/ [^c'=g']/[f'=c'']/[^e'b']/[^a'=e'']/!<)! | %42
!ff![Q:1/4=68] .[b'^d'']/)[Q:1/4=78] ([d'b']/[=af']/)!8va)! z ([DB]/[=A,F]/) z/ | %43
 z/!<(! [A,EFA]/[B,EFB]/[=CEF=c]/!<)! [B,EFB]/[A,EFA]/[B,EFB]/[CEFc]/ | %44
[Q:1/4=58] !wedge![B,DFB]/[Q:1/4=78]!8va(! ([a'd'']/[d'b']/)!8va)! z ([Ad]/[DB]/) z/ | %45
 z/ [A,EFA]/[B,EFB]/[=CEF=c]/ [B,EFB]/[Q:1/4=73][A,EFA]/[Q:1/4=65][B,EFB]/[Q:1/4=52][Fcef]/ | %46
!f![Q:1/4=38] !wedge![FBdf]/"_con bravura"[Q:1/4=68] ([=d'b']/[Q:1/4=73][g=f']/)[Q:1/4=78] ([=fd']/[Q:1/4=83][bg']/)[Q:1/4=88] ([=c'a']/[Q:1/4=93][^f^d']/)[Q:1/4=98] ([^d=c']/ | %47
[Q:1/4=104] [af']/) ([=c'a']/[fd']/) ([=f=d']/[bg']/) ([^a=g']/[e^c']/) ([^d=c']/ | %48
[=af']/) ([=c'a']/[fd']/) ([dc']/[af']/) ([bg']/[=f=d']/) ([=db]/ | %49
[g=f']/) ([bg']/[=f=d']/) ([e^c']/[^a=g']/) ([=a^f']/[^d=c']/) ([=db]/ | %50
[^g=f']/) ([bg']/[=f=d']/) ([=db]/[gf']/) ([a^f']/[^d=c']/) ([=ca]/ | %51
[fd']/)"_cresc. e stretto" ([af']/[d=c']/) ([=db]/[g=f']/) ([=ge']/[^c^a]/) ([=c=a]/ | %52
 [^f^d']/) ([=f=d']/[B^g]/) ([^A=g]/[e^c']/) ([Ag]/[ec']/) ([Ag]/ | %53
[e=c']/)"_ritenuto"[Q:1/4=96] ([^A^f]/[Q:1/4=90][e=c']/)[Q:1/4=84] ([Af]/[Q:1/4=78][ec']/)[Q:1/4=68]"_cresc." ([=Af]/[ec']/)[Q:1/4=56] ([Af]/ | %54
!f![Q:1/4=15][db]/) z/[Q:1/4=55]"^tempo"!p! (B/G/ B/A/!>!F-) | F(B/G/ B/A/!>!F-) | %56
!p! F(G/F/ F/E/!>!C) | (E/D/!>!G/F/ F/E/!>!C) | (E/!>!DC/)"_dim." (E/!>!DC/) | %59
 (E/!>!DC/) (E/!>!DC/) | %60
 (E/!pp![B,D]/[Q:1/4=52][F,E]/"^smorzando e rallent."[B,D]/[Q:1/4=49] [F,E]/[CD]/[Q:1/4=45][F,E]/[CD]/ | %61
[Q:1/4=40] [F,E]/[A,D]/[Q:1/4=33][F,E]/[A,D]/[Q:1/4=24] [F,E]/[B,D]/[F,E]/!pp![B,D]/) | %62
[Q:1/4=25]"^tempo I"!p! (ED/E/) ([DF]2- | F/G/ G/F/) ([EG-]2 | %64
!<(! G/A/ A/G/)!<)!!mf!!>(! (!>!c>B!>)! |!p! A/G/D/E/) (!>!F2- | %66
!<(! F/G/!<)!!mf!!>(!G/F/!>)!!p! !>!E2) |"_poco cresc." (B/c/) (c/B/) (A/B/G/A/) | %68
[Q:1/4=25]"^.5"!mf!"_cresc. e stretto" (^d/e/)[Q:1/4=26] (e/d/)[Q:1/4=27] (c/d/[Q:1/4=28]^B/c/) | %69
!<(! (.[E^Ae]/.[FAf]/.[DAd]/.[EAe]/!<)!"_ritenuto"[Q:1/4=27]"_cresc." .[FAf]/.[GAg]/[Q:1/4=26].[EAe]/.[FAf]/) | %70
[Q:1/4=25]"^a tempo"!f! ([eg-]2!>(! g/f/e/c/!>)! |!mf! !>!d2)"_dimin." (e/d/c/G/ | %72
 !>!B2) (c/B/A/E/ |!pp! G2-) G/(F/E/=C/ | G2-) G/(F/E/=C/ | G4-)[Q:1/4=24][Q:1/4=23] | %76
[Q:1/4=21]"_smorz." G2-[Q:1/4=19][Q:1/4=17] (G/.F/[Q:1/4=15].E/.B,/ |!pp! !fermata![G,E]4) |] %78
V:2
 z | E,,/!>!B,,B,,/ B,,,/!>!B,,B,,/ | B,,,/!>!B,,B,,/ E,,/!>!B,,B,,/ | E,,/B,,B,,/ B,,,/B,,B,,/ | %4
 E,,/B,,B,,/ B,,,/B,,B,,/ | B,,,/B,,B,,/ E,,/B,,B,,/ | E,,/E,E,/ A,,/E,E,/ | %7
 A,,/!>!F,F,/ B,,/!>!F,F,/ | C,/F,F,/ B,,/F,F,/ | E,,/B,,B,,/ B,,,/B,,B,,/ | %10
 B,,,/B,,B,,/ E,,/B,,B,,/ | E,,/B,,B,,/ B,,,/B,,B,,/ | E,,/B,,B,,/ B,,,/B,,B,,/ | %13
 B,,,/B,,B,,/ E,,/B,,B,,/ | E,,/!>!E,E,/ A,,/!>!E,E,/ | G,,/G,G,/ C,/G,G,/ | %16
 [C,E,F,^A,]/[C,E,F,A,]/[C,E,F,A,]/[C,E,F,A,]/ [=C,E,F,A,]/[C,E,F,A,]/[C,E,F,A,]/[C,E,F,A,]/ | %17
 [B,,E,G,B,]4 | F,/B,/B,,/B,/ C,/G,/G,,/G,/ | D,/G,/G,,/G,/ A,,/E,/E,,/E,/ | %20
 B,,/E,/E,,/E,/ B,,/E,/E,,/-B,,/- | [E,,B,,E,]2 z2 | .F,,/.^A,/.F,,/.B,/ .F,,/(C/B,/A,/) | %23
 (B,,/F,/B,/) z/ z2 | .F,,/.^A,/.F,,/.B,/ .F,,/(C/B,/A,/) | (B,,/F,/B,/) z/ z2 | %26
 .G,,/.^B,/.G,,/.C/ .G,,/(D/C/B,/) | (C,/G,/C/) z/ z2 | .G,,/.^B,/.G,,/.C/ .G,,/(D/C/B,/) | %29
 (C,/G,/C/).C,/ .B,,/.=D/.E,/.B,,/ | z/ !>!E,<E, !>!E,/E, | z/ E,<E, E,/E, | %32
!ped! !wedge![=G,,=G,]/ ([G,B,]/[^CE]/)[K:treble] ([E=G]/[B,C]/) ([CE]/[GB]/) ([Bc]/ | %33
[E=G]/) ([GB]/[ce]/) ([e=g]/[Bc]/)!ped-up![K:bass] (.[F,CE]/.[F,CE]/.[F,CE]/) | %34
 B,/ !>!F,<x !>!F,/F, | z/ F,<F, F,/F, | %36
!ped! !wedge![=A,,=A,]/ ([A,C]/[^DF]/)[K:treble] ([FA]/[CD]/) ([DF]/[Ac]/) ([cd]/ | %37
[FA]/) ([Ac]/[df]/) ([fa]/[cd]/)!ped-up![K:bass] (.[G,DF]/.[G,DF]/.[G,DF]/) | %38
 .[G,=D^E]/ ([=F,=B,]/[=E,^A,]/[^D,=A,]/ [=D,^G,]/[^C,=G,]/[=C,^F,]/[B,,=F,]/ | %39
 .[A,,E,]/) ([E,^A,]/[^D,=A,]/[=D,^G,]/ [^C,=G,]/[=C,^F,]/[B,,=F,]/[^A,,E,]/ | %40
 .[=A,,^D,]/) ([D,=A,]/[=D,G,]/[^C,=G,]/ [=C,^F,]/[B,,=F,]/[^A,,E,]/[=A,,^D,]/ | %41
 [G,,=D,]/[=G,,C,]/[^F,,=C,]/[=F,,B,,]/ [E,,^A,,]/[^D,,=A,,]/[=D,,^G,,]/[^C,,^F,,]/ | %42
!ped! .[B,,,F,,]/) z[K:treble] ([db]/[=Af]/) z[K:bass] ([D,B,]/ | %43
 [A,,F,]/)!ped-up! [=C,,=C,]/[B,,,B,,]/[A,,,A,,]/ [B,,,B,,]/[C,,C,]/[B,,,B,,]/[A,,,A,,]/ | %44
!ped! !wedge![B,,,B,,]/ z[K:treble] ([fd']/[Ba]/) z[K:bass] ([F,D]/ | %45
 [B,,A,]/)!ped-up! [=C,,=C,]/[B,,,B,,]/[A,,,A,,]/ [B,,,B,,]/[C,,C,]/[B,,,B,,]/[A,,,A,,]/ | %46
 !wedge![B,,,B,,]/[K:treble]!ped! ([=DB]/[G=f]/) ([=F=d]/[B,G]/)!ped-up!!ped! ([=CA]/[^F^d]/) ([^D=c]/ | %47
 [A,F]/) ([=CA]/[Fd]/)!ped-up!!ped! ([=F=d]/[B,G]/)!ped-up!!ped! ([^A,=G]/[E^c]/)!ped-up!!ped! ([^D=c]/ | %48
[=A,F]/) ([=CA]/[Fd]/) ([D=c]/[A,F]/)!ped-up!!ped! ([B,G]/[=F=d]/) ([=DB]/ | %49
[G,=F]/) ([B,G]/[F=d]/)!ped-up!!ped! ([E^c]/[^A,=G]/)!ped-up!!ped! ([=A,^F]/[^D=c]/)!ped-up!!ped! ([=DB]/ | %50
[^G,=F]/) ([B,G]/[F=d]/) ([=DB]/[G,F]/)!ped-up!!ped! ([A,^F]/[^D=c]/) ([=CA]/ | %51
[F,D]/) ([A,F]/[D=c]/)!ped-up!!ped! ([=DB]/[G,=F]/)!ped-up!!ped! ([=G,E]/[^C^A]/)!ped-up!!ped! ([=C=A]/ | %52
 [^F,^D]/)!ped-up!!ped! ([=F,=D]/[B,G]/)!ped-up![K:bass]!ped! ([^A,=G]/[E,^C]/) ([A,G]/[E,C]/)!ped-up!!ped! ([A,G]/ | %53
[E,=C]/)!ped-up!!ped! ([^A,F]/[E,=C]/) ([A,F]/[E,C]/)!ped-up!!ped! ([=A,F]/[E,C]/)!ped-up!!ped! ([A,F]/ | %54
[B,,B,]/)!ped-up! z/ (E,A,,) (!>!=C, |B,,) (3(E,/F,/E,/.A,,) (!>!=C, |B,,) (B,,,E,,) (!>!B,, | %57
 B,,) (3(B,,,/C,,/B,,,/.E,,) (!>!B,, |B,,) (3(E,,/F,,/E,,/.B,,,) (!>!B,, | %59
B,,) (3(E,,/F,,/E,,/.B,,) z | z2 z (3(F,,/G,,/F,,/ | B,,,2) z2 | E,,/B,,B,,/ B,,,/B,,B,,/ | %63
 B,,,/B,,B,,/ E,,/B,,B,,/ | E,,/B,,B,,/ B,,,/B,,B,,/ | E,,/B,,B,,/ B,,,/B,,B,,/ | %66
 B,,,/B,,B,,/ E,,/B,,B,,/ | E,,/!>!E,E,/ A,,/!>!E,E,/ | G,,/G,G,/ C,/G,G,/ | %69
 [C,E,F,^A,]/[C,E,F,A,]/[C,E,F,A,]/[C,E,F,A,]/ [=C,E,F,A,]/[C,E,F,A,]/[C,E,F,A,]/[C,E,F,A,]/ | %70
 [B,,E,G,B,]4 | F,/B,/B,,/B,/ C,/G,/G,,/G,/ | D,/G,/G,,/G,/ A,,/E,/E,,/E,/ | %73
 B,,/E,/E,,/E,/ =C,/E,/E,,/E,/ | B,,/E,/E,,/E,/ =C,/E,/E,,/E,/ | B,,/E,/E,,/E,/ B,,/E,/E,,/E,/ | %76
 B,,/E,/E,,/E,/ B,,/E,/E,,/B,,/- | !fermata![E,,B,,]4 |] %78
V:3
 x | G,/!<(!B,/G,/B,/!<)! A,/B,/A,/B,/ | A,/B,/A,/B,/ G,/B,/G,/B,/ | G,/E/B,/E/ D/!>(!A/B,/!>)!D/ | %4
 B,/E/G,/B,/ ([A,C]/!<(![B,D]/[A,C]/[B,D]/!<)! | [A,C]/[B,D]/[A,C]/[B,D]/) G,/B,/G,/B,/ | %6
 =D/E/D/E/ C/E/C/E/ | C/E/C/E/"_stretto""^.5"!mf! B,/E/B,/E/ | %8
 ^A,/E/A,/E/ =A,/B,/"^.5"!>(!A,/B,/!>)! | G,/!<(!B,/G,/B,/!<)! A,/B,/A,/B,/ | %10
 A,/B,/A,/B,/ G,/B,/G,/B,/ | G,/E/B,/E/ D/!>(!A/B,/!>)!D/ | %12
 B,/E/G,/B,/ ([A,C]/!<(![B,D]/[A,C]/[B,D]/!<)! | [A,C]/[B,D]/[A,C]/[B,D]/) G,/B,/G,/B,/ | %14
 [=DF]/[EG]/[DF]/[EG]/ C/E/C/E/ | [F^B]/G/[F^A]/[G=B]/ E/G/E/G/ | x4 | G/B/G/B/ G/B/G/B/ | %18
 D/F/D/F/ E/G/E/G/ | B,/D/B,/D/ C/E/C/E/ | G,/B,/G,/B,/"^.5"!pp! G,/B,/G,/B,/ | G,2 x2 | x2 EG/F/ | %23
 x4 | x2 EG/F/ | x4 | x2 F=A/G/ | x4 | x2 F=A/G/ | x4 | z/ [CE]<[=DF] [DF]/!>(![DE]!>)! | %31
 z/ [=CE]<[=D=F] [DF]/[DE] | x4 | x4 | z/ [CE]<[=DF] [DF]/!>(![DE]!>)! | %35
 z/ [=CE]<[=D=F] [DF]/[DE] | x4 | x4 | x4 | x4 | x4 | x3/2!8va(! x5/2 | x3/2!8va)! x5/2 | x4 | %44
 x/!8va(! x!8va)! x5/2 | x4 | x4 | x4 | x4 | x4 | x4 | x4 | x4 | x4 | x =D/E/ C/E/A,/E/ | %55
 A,/^D/=D/E/ C/E/A,/E/ | A,/^D/A,/B,/ G,/B,/=G,/B,/ | F,/B,/A,/B,/ ^G,/B,/=G,/B,/ | %58
 F,/B,/!>!=G,/B,/ F,/B,/!>!G,/B,/ | F,/B,/!>!=G,/B,/ F,/B,/!>!G,/B,/ | x4 | x4 | %62
 G,/B,/G,/B,/ A,/B,/A,/B,/ | A,/B,/A,/B,/ G,/B,/G,/B,/ | G,/E/B,/E/ D/A/B,/D/ | %65
 B,/E/G,/B,/ ([A,C]/[B,D]/[A,C]/[B,D]/ | [A,C]/[B,D]/[A,C]/[B,D]/) G,/B,/G,/B,/ | %67
 [=DF]/[EG]/[DF]/[EG]/ C/E/C/E/ | [F^B]/G/[F^A]/[G=B]/ E/G/E/G/ | x4 | G/B/G/B/ G/B/G/B/ | %71
 D/F/D/F/ E/G/E/G/ | B,/D/B,/D/ C/E/C/E/ | G,/B,/G,/B,/ A,/=C/A,/C/ | G,/B,/G,/B,/ A,/=C/A,/C/ | %75
 G,/B,/G,/B,/"_rallent." G,/B,/G,/B,/ | G,/B,/G,/B,/ G,/B,/G,/B,/ | x4 |] %78
V:4
 x | E,,2 B,,,2 | B,,,2 E,,2 | E,,2 B,,,2 | E,,2 B,,,2 | B,,,2 E,,2 | E,,2 A,,2 | A,,2 B,,2 | %8
 C,2 B,,2 | E,,2 B,,,2 | B,,,2 E,,2 | E,,2 B,,,2 | E,,2 B,,,2 | B,,,2 E,,2 | E,,2 A,,2 | G,,2 C,2 | %16
 x4 | x4 | x4 | x4 | x3 E,, | x4 | x4 | x4 | x4 | x4 | x4 | x4 | x4 | x4 | A,,>E,, B,,>E,, | %31
 A,,>E,, B,,>E,, | x3/2[K:treble] x5/2 | x5/2[K:bass] x3/2 | x F,/F,,/ C,>F,, | B,,>F,, C,>F,, | %36
 x3/2[K:treble] x5/2 | x5/2[K:bass] x3/2 | x4 | x4 | x4 | x4 | x3/2[K:treble] x2[K:bass] x/ | x4 | %44
 x3/2[K:treble] x2[K:bass] x/ | x4 | x/[K:treble] x7/2 | x4 | x4 | x4 | x4 | x4 | %52
 x3/2[K:bass] x5/2 | x4 | x4 | x4 | x4 | x4 | x4 | x4 | x4 | x4 | E,,2 B,,,2 | B,,,2 E,,2 | %64
 E,,2 B,,,2 | E,,2 B,,,2 | B,,,2 E,,2 | E,,2 A,,2 | G,,2 C,2 | x4 | x4 | x4 | x4 | x4 | x4 | x4 | %76
 x4 | x4 |] %78
V:5
 x | x4 | D D x2 | x4 | x4 | x4 | x4 | x4 | x4 | x4 | D D x2 | x4 | x4 | x4 | x4 | x4 | x4 | x4 | %18
 x4 | x4 | x4 | x4 | x4 | x4 | x4 | x4 | x4 | x4 | x4 | x4 | x4 | x4 | x4 | x4 | x4 | x4 | x4 | %37
 x4 | x4 | x4 | x4 | x3/2!8va(! x5/2 | x3/2!8va)! x5/2 | x4 | x/!8va(! x!8va)! x5/2 | x4 | x4 | %47
 x4 | x4 | x4 | x4 | x4 | x4 | x4 | x4 | x4 | x4 | x4 | x3 =G, | F, x2 =G, | F, x3 | x4 | x4 | %63
 D D x2 | x4 | x4 | x4 | x4 | x4 | x4 | x4 | x4 | x4 | x4 | x4 | x4 | x4 | x4 |] %78

